icons/line/star.svg

<svg width="24" height="24" viewBox="0 0 24 24" fill="none" xmlns="http://www.w3.org/2000/svg">
<path d="M11.5516 3.90849C11.735 3.53687 12.265 3.53687 12.4484 3.90849L14.5287 8.1237C14.6015 8.27127 14.7423 8.37356 14.9052 8.39722L19.5569 9.07316C19.967 9.13276 20.1308 9.63674 19.834 9.92601L16.468 13.2071C16.3501 13.322 16.2964 13.4875 16.3242 13.6497L17.1188 18.2826C17.1889 18.6911 16.7601 19.0026 16.3933 18.8097L12.2327 16.6223C12.087 16.5457 11.913 16.5457 11.7673 16.6223L7.60667 18.8097C7.23985 19.0026 6.81114 18.6911 6.88119 18.2826L7.67581 13.6497C7.70363 13.4875 7.64985 13.322 7.53201 13.2071L4.16597 9.92601C3.86921 9.63674 4.03296 9.13276 4.44307 9.07316L9.09483 8.39722C9.25769 8.37356 9.39847 8.27127 9.4713 8.1237L11.5516 3.90849Z" stroke="currentColor" stroke-width="2" stroke-linecap="round" stroke-linejoin="round"/>
</svg>

<svg width="24" height="24" fill="none" xmlns="http://www.w3.org/2000/svg"><path d="M11.552 3.908a.5.5 0 01.896 0l2.08 4.216a.5.5 0 00.377.273l4.652.676a.5.5 0 01.277.853l-3.366 3.281a.5.5 0 00-.144.443l.795 4.633a.5.5 0 01-.726.527l-4.16-2.188a.5.5 0 00-.466 0l-4.16 2.188a.5.5 0 01-.726-.527l.795-4.633a.5.5 0 00-.144-.443L4.166 9.926a.5.5 0 01.277-.853l4.652-.676a.5.5 0 00.376-.273l2.08-4.216z" stroke="currentColor" stroke-width="2" stroke-linecap="round" stroke-linejoin="round"/></svg>
